{ "compressionlevel":-1,
 "height":9,
 "infinite":false,
 "layers":[
        {
         "data":[1,1,1,1,1,1,1,1,1,1,1,1,
                 1,1,1,1,3,4,4,5,1,1,1,1,
                 1,1,1,1,7,8,8,9,1,1,1,1,
                 2,2,2,2,2,2,2,2,2,2,2,2,
                 13,14,13,14,13,14,13,14,13,14,13,14,
                 14,13,14,13,14,13,14,13,14,13,14,13,
                 13,14,13,14,13,14,13,14,13,14,13,14,
                 14,13,14,13,14,13,14,13,14,13,14,13,
                 13,14,13,14,13,14,13,14,13,14,13,14],
         "height":9,
         "id":1,
         "name":"background",
         "opacity":1,
         "type":"tilelayer",
         "visible":true,
         "width":12,
         "x":0,
         "y":0
        }],
 "nextlayerid":2,
 "nextobjectid":1,
 "orientation":"orthogonal",
 "renderorder":"right-down",
 "tiledversion":"1.11.2",
 "tileheight":16,
 "tilesets":[
        {
         "columns":6,
         "firstgid":1,
         "image":"indoor_tileset.png",
         "imageheight":48,
         "imagewidth":96,
         "margin":0,
         "name":"indoor",
         "spacing":0,
         "tilecount":18,
         "tileheight":16,
         "tilewidth":16
        }],
 "tilewidth":16,
 "type":"map",
 "version":"1.10",
 "width":12
}
